assets/svgs/dogaccessories/dog-rainbow-hat.svg

<?xml version="1.0" encoding="iso-8859-1"?>
<!-- Generator: Adobe Illustrator 19.0.1, SVG Export Plug-In . SVG Version: 6.00 Build 0)  -->
<svg version="1.1" xmlns="http://www.w3.org/2000/svg" xmlns:xlink="http://www.w3.org/1999/xlink" x="0px" y="0px"
	 viewBox="0 0 19.302 9.798" enable-background="new 0 0 19.302 9.798" xml:space="preserve">
<g id="_x31_-_Blue_Dog">
	<g id="Layer_2" display="none" opacity="0.4">
	</g>
</g>
<g id="_x32_-_Options">
	<g id="medication">
	</g>
	<g id="talking">
	</g>
	<g id="practical">
		<g id="mirror_2_">
		</g>
	</g>
</g>
<g id="_x33_-_Practical_Intro">
	<g id="dog-side_2_">
	</g>
	<g id="List">
	</g>
</g>
<g id="_x34_-_Practical_List">
</g>
<g id="_x35_-_Support_Locations">
</g>
<g id="_x36_-Shy_Dog">
</g>
<g id="_x37_-Better_Dog">
</g>
<g id="_x38_-Therapist_Dog">
</g>
<g id="_x39_-_Therapy_Details">
	<g id="text_6_">
	</g>
	<g id="grandad_dog">
	</g>
	<g id="puppy">
		<g id="cool_hat_1_">
			<g>
				<path fill="#EF9A9A" d="M9.657,0C5.533,0,2.015,3.784,0.586,9.126c0.582-0.377,1.203-0.715,1.855-1.015
					C3.745,3.313,6.482,0,9.657,0z"/>
				<path fill="#EF9A9A" d="M16.941,8.368c0.667,0.338,1.295,0.719,1.881,1.14C17.461,3.966,13.877,0,9.657,0
					C12.888,0,15.666,3.431,16.941,8.368z"/>
				<path fill="#FFAB91" d="M2.441,8.111C3.063,7.825,3.716,7.58,4.393,7.372C5.427,2.975,7.395,0,9.657,0
					C6.482,0,3.745,3.313,2.441,8.111z"/>
				<path fill="#FFAB91" d="M14.958,7.518c0.694,0.238,1.352,0.529,1.984,0.849C15.666,3.431,12.888,0,9.657,0
					C11.944,0,13.934,3.039,14.958,7.518z"/>
				<path fill="#FFE082" d="M13.362,7.07c0.545,0.127,1.08,0.272,1.596,0.449C13.934,3.039,11.944,0,9.657,0
					C11.234,0,12.61,2.842,13.362,7.07z"/>
				<path fill="#FFE082" d="M4.393,7.372c0.512-0.158,1.038-0.291,1.577-0.4C6.725,2.799,8.091,0,9.657,0
					C7.395,0,5.427,2.975,4.393,7.372z"/>
				<path fill="#FFF59D" d="M5.969,6.972c0.34-0.069,0.683-0.13,1.033-0.179C7.556,2.719,8.536,0,9.657,0
					C8.091,0,6.725,2.799,5.969,6.972z"/>
				<path fill="#FFF59D" d="M12.319,6.853c0.354,0.059,0.699,0.136,1.043,0.217C12.61,2.842,11.234,0,9.657,0
					C10.783,0,11.767,2.746,12.319,6.853z"/>
				<path fill="#C5E1A5" d="M11.538,6.754c0.261,0.032,0.525,0.056,0.781,0.099C11.767,2.746,10.783,0,9.657,0
					C10.45,0,11.144,2.701,11.538,6.754z"/>
				<path fill="#C5E1A5" d="M7.002,6.793C7.26,6.757,7.518,6.722,7.781,6.697C8.175,2.676,8.867,0,9.657,0
					C8.536,0,7.556,2.719,7.002,6.793z"/>
				<path fill="#80CBC4" d="M10.842,6.671c0.236,0.019,0.464,0.055,0.696,0.083C11.144,2.701,10.45,0,9.657,0
					C10.155,0,10.592,2.664,10.842,6.671z"/>
				<path fill="#80CBC4" d="M7.781,6.697c0.228-0.021,0.46-0.032,0.692-0.045C8.723,2.656,9.159,0,9.657,0
					C8.867,0,8.175,2.676,7.781,6.697z"/>
				<path fill="#81D4FA" d="M8.472,6.652c0.203-0.011,0.407-0.021,0.612-0.025C9.205,2.644,9.416,0,9.657,0
					C9.159,0,8.723,2.656,8.472,6.652z"/>
				<path fill="#81D4FA" d="M10.23,6.646c0.204,0.009,0.411,0.009,0.613,0.025C10.592,2.664,10.155,0,9.657,0
					C9.897,0,10.108,2.653,10.23,6.646z"/>
				<path fill="#9FA8DA" d="M9.084,6.627C9.2,6.625,9.313,6.613,9.43,6.613c0.27,0,0.534,0.021,0.8,0.033
					C10.108,2.653,9.897,0,9.657,0C9.416,0,9.205,2.644,9.084,6.627z"/>
			</g>
			<path fill="#FFFFFF" d="M19.302,9.798c-2.715-2.197-7.187-3.517-10.598-3.517C5.293,6.281,2.715,7.317,0,9.514
				c3.495-0.715,6.155-1.002,8.704-0.955C11.726,8.674,16.132,9.139,19.302,9.798z"/>
		</g>
	</g>
</g>
<g id="_x31_0-Combining_Therapies">
	<g id="text_7_">
	</g>
	<g id="Isometric_Grid">
	</g>
	<g id="chair_3_">
	</g>
</g>
<g id="_x31_1-Medication_Script">
</g>
<g id="_x31_2-Dog_With_Medication">
</g>
<g id="_x31_3-Medication_Check_Ups">
</g>
<g id="_x31_4-Medication_Side_Effects">
	<g id="shy_dog_1_">
	</g>
</g>
</svg>

<svg xmlns="http://www.w3.org/2000/svg" viewBox="0 0 19.302 9.798" enable-background="new 0 0 19.302 9.798"><g><g><g><path fill="#EF9A9A" d="M9.66 0C5.53 0 2.02 3.78.6 9.13c.57-.38 1.2-.72 1.84-1.02C3.74 3.3 6.48 0 9.66 0zM16.94 8.37c.67.34 1.3.72 1.88 1.14C17.46 3.98 13.88 0 9.66 0c3.23 0 6 3.43 7.28 8.37z"/><path fill="#FFAB91" d="M2.44 8.1c.62-.27 1.28-.52 1.95-.73C5.42 2.97 7.4 0 9.65 0c-3.18 0-5.9 3.3-7.22 8.1zM14.96 7.52c.7.24 1.35.53 1.98.85C15.67 3.43 12.9 0 9.66 0c2.28 0 4.27 3.04 5.3 7.52z"/><path fill="#FFE082" d="M13.36 7.07c.55.13 1.08.27 1.6.45C13.93 3.04 11.94 0 9.66 0c1.57 0 2.95 2.84 3.7 7.07zM4.4 7.37c.5-.16 1.03-.3 1.57-.4C6.72 2.8 8.1 0 9.67 0 7.38 0 5.42 2.98 4.38 7.37z"/><path fill="#FFF59D" d="M5.97 6.97c.34-.07.68-.13 1.03-.18C7.56 2.7 8.54 0 9.66 0 8.1 0 6.72 2.8 5.96 6.97zM12.32 6.85c.35.06.7.14 1.04.22C12.6 2.84 11.23 0 9.66 0c1.12 0 2.1 2.75 2.66 6.85z"/><path fill="#C5E1A5" d="M11.54 6.75c.26.04.52.06.78.1C11.77 2.75 10.78 0 9.66 0c.8 0 1.48 2.7 1.88 6.75zM7 6.8c.26-.04.52-.08.78-.1.4-4.02 1.1-6.7 1.88-6.7C8.54 0 7.56 2.72 7 6.8z"/><path fill="#80CBC4" d="M10.84 6.67c.24.02.47.06.7.08C11.14 2.7 10.44 0 9.66 0c.5 0 .93 2.66 1.18 6.67zM7.78 6.7c.23-.02.46-.04.7-.05C8.7 2.65 9.15 0 9.65 0c-.8 0-1.48 2.68-1.88 6.7z"/><path fill="#81D4FA" d="M8.47 6.65c.2 0 .4-.02.6-.02.13-4 .35-6.63.6-6.63-.5 0-.95 2.66-1.2 6.65zM10.23 6.65c.2 0 .4 0 .6.02-.24-4-.68-6.67-1.17-6.67.24 0 .45 2.65.57 6.65z"/><path fill="#9FA8DA" d="M9.08 6.63c.12 0 .23-.02.35-.02.27 0 .53.03.8.05C10.1 2.65 9.9 0 9.66 0c-.24 0-.46 2.64-.58 6.63z"/><path fill="#fff" d="M19.3 9.8c-2.7-2.2-7.2-3.52-10.6-3.52-3.4 0-5.98 1.04-8.7 3.23 3.5-.7 6.16-1 8.7-.94 3.03.1 7.43.58 10.6 1.24z"/></g></g></g></svg>
